static/characters/youkanman/front-walking-1.svg

<svg height="182" width="160" xmlns="http://www.w3.org/2000/svg" xml:space="preserve" style="fill-rule:evenodd;clip-rule:evenodd;stroke-linecap:round;stroke-linejoin:round;stroke-miterlimit:1.5"><g opacity=".95"><path d="m542.173 844.83.977-139.625 145.559-72.779 45.537 22.827 1.221 137.42-148.739 76.039-44.555-23.882Z" style="fill:#6c4444;stroke:#000;stroke-width:2.76px" transform="translate(-146.515 -181.906) scale(.3621)"/><path d="m702.177 596.153 512.733 2.672v41.795H700.395l1.782-44.467Z" style="fill-rule:nonzero" transform="matrix(.0485 -.02425 0 .0485 33.256 67.324)"/><path d="m702.177 596.153 512.733 2.672v41.795H700.395l1.782-44.467Z" style="fill-rule:nonzero" transform="matrix(.0485 -.02425 0 .0485 42.953 47.044)"/><path d="m702.177 596.153 512.733 2.672v41.795H700.395l1.782-44.467Z" style="fill-rule:nonzero" transform="matrix(.0485 -.02425 0 .0485 18.032 59.264)"/><path d="m702.177 596.153 512.733 2.672v41.795H700.395l1.782-44.467Z" style="fill:#5e3b3b;fill-rule:nonzero" transform="matrix(.0485 -.02425 0 .0485 17.32 109.484)"/><path d="m702.177 596.153 512.733 2.672v41.795H700.395l1.782-44.467Z" style="fill:#5e3b3b;fill-rule:nonzero" transform="matrix(.0485 -.02425 0 .0485 42.276 97.006)"/><path d="m702.177 596.153 512.733 2.672v41.795H700.395l1.782-44.467Z" style="fill-rule:nonzero" transform="matrix(.02868 .01416 0 .0485 30.059 33.054)"/><path d="m702.177 596.153 512.733 2.672v41.795H700.395l1.782-44.467Z" style="fill-rule:nonzero" transform="matrix(.02868 .01416 0 .0485 83.527 7.582)"/><path d="m702.177 596.153 512.733 2.672v41.795H700.395l1.782-44.467Z" style="fill:#5e3b3b;fill-rule:nonzero" transform="matrix(.02868 .01416 0 .0485 82.78 57.51)"/><path d="m702.177 596.153 512.733 2.672v41.795H700.395l1.782-44.467Z" style="fill-rule:nonzero" transform="matrix(.02868 .01416 0 .0485 29.283 84.258)"/><path d="M363.817 943.029c72.106 15.256 97.839-28.735 153.272 47.82L514.826 1075c-107.513-148.771-268.585 3.14-291.009 41.71l-43.355-24.79 9.96-42.84 72.024-71.529 101.371-34.522Z" style="fill-rule:nonzero" transform="matrix(.0485 -.02425 0 .0485 32.181 63.238)"/><path style="fill-rule:nonzero" d="M625.74 644.656h40.354v512.502H625.74z" transform="matrix(.0485 -.02425 0 .0485 34.613 66.689)"/><path style="fill-rule:nonzero" d="M625.74 644.656h40.354v512.502H625.74z" transform="matrix(.0485 -.02425 0 .0485 18.595 83.06)"/><path style="fill-rule:nonzero" d="M625.74 644.656h40.354v512.502H625.74z" transform="matrix(.0485 -.02425 0 .0485 18.723 57.904)"/><path style="fill:#5e3b3b;fill-rule:nonzero" d="M625.74 644.656h40.354v512.502H625.74z" transform="matrix(.0485 -.02425 0 .0485 71.54 33.573)"/><path style="fill:#5e3b3b;fill-rule:nonzero" d="M625.74 644.656h40.354v512.502H625.74z" transform="matrix(.0485 -.02425 0 .0485 71.54 57.26)"/><path d="m1216.93 597.043 516.3 2.673-1.78 40.904h-514.52v-43.577Z" style="fill-rule:nonzero" transform="matrix(.0485 -.02425 0 .0485 32.841 67.77)"/><path style="fill-rule:nonzero" d="M791.193 856.517h86.762v86.762h-86.762z" transform="matrix(.0485 -.02425 0 .0485 36.48 64.084)"/><path d="m1222.99 1088.56-185.63-336.965 38.33-22.195 46.41 82.727h201.77l46.41-82.727 38.34 22.195-185.63 336.965Zm-80.71-234.061 80.71 143.258 80.7-143.258h-161.41Z" style="fill-rule:nonzero" transform="matrix(.0485 -.02425 0 .0485 33.834 67.07)"/><path style="fill-rule:nonzero" d="M1566 856.517h86.762v86.762H1566z" transform="matrix(.0485 -.02425 0 .0485 32.194 66.75)"/><path style="fill-rule:nonzero" d="M1779.88 644.656h40.354v512.502h-40.354z" transform="matrix(.0485 -.02425 0 .0485 32.611 67.646)"/><path d="M2012.23 1032.13c-24.53 23.49-50.86 44.88-79.01 62.63l-34.27-16.69-14.15-29.87c48.82-24.95 91.52-56.036 128.1-93.244" style="fill:#5e3b3b;fill-rule:nonzero" transform="matrix(.0485 -.02425 0 .0485 21.43 64.099)"/><path d="M2012.9 954.956a478.284 478.284 0 0 0 25.25-27.819c43.04-51.116 76.67-121.736 100.88-211.861l27.58-1.668 26.9 25.881c9.42 5.38 10.14 17.61-3.31 22.991-28.25 78.018-62.6 133.046-97.58 178.781-24.19 31.533-50.99 62.709-80.39 90.869" style="fill-rule:nonzero" transform="matrix(.0485 -.02425 0 .0485 21.43 64.099)"/><path style="fill-rule:nonzero" d="M583.367 1161.19h40.354v512.502h-40.354z" transform="matrix(.0485 -.02425 0 .0485 36.668 65.136)"/><path d="M664.076 1651.5H1178.6v43.58l-514.524-3.57v-40.01Z" style="fill-rule:nonzero" transform="matrix(.0485 -.02425 0 .0485 35.3 66.571)"/><path d="M1180.61 1651.5h514.52l-3.56 36.45-505.61 8.02-5.35-44.47Z" style="fill-rule:nonzero" transform="matrix(.0485 -.02425 0 .0485 35.89 65.93)"/><path style="fill-rule:nonzero" d="M1737.51 1161.19h40.354v512.502h-40.354z" transform="matrix(.0485 -.02425 0 .0485 34.547 66.571)"/><path d="M977.928 1839.54c-5.415 185.41 177.572 292.17 249.112 368.08-.74 18.14 24.7 35.55-4.44 39.68-68.54 9.74-367.106-334.93-301.162-408.26" style="fill-rule:nonzero" transform="matrix(.0485 -.02425 0 .0485 26.913 61.733)"/><path d="m921.438 1839.04-.403-153.29c1.698-13.06 9.491-36.86 36.473-15.81 2.802 2.18 19.918 32.33 19.918 32.33l.502 137.27" style="fill:#5e3b3b;fill-rule:nonzero" transform="matrix(.0485 -.02425 0 .0485 26.913 61.733)"/><path d="m1382.65 1834.37-1.1-150.4c-2.48-17.48 13.67-35.09 39.36-14.8 3.04 2.4 15.25 25.91 15.25 25.91l.96 132.89" style="fill:#5e3b3b;fill-rule:nonzero" transform="matrix(.0485 -.02425 0 .0485 25.516 62.593)"/><path d="m1437.12 1827.97 2.6 357.81c-1.46 20.05-23.49 24.15-40.58 10.65-2.8-2.21-14.03-26.28-14.03-26.28l-2.46-335.78" style="fill-rule:nonzero" transform="matrix(.0485 -.02425 0 .0485 25.516 62.593)"/></g></svg>

<?xml version="1.0" encoding="UTF-8" standalone="no"?>
<!DOCTYPE svg PUBLIC "-//W3C//DTD SVG 1.1//EN" "http://www.w3.org/Graphics/SVG/1.1/DTD/svg11.dtd">
<svg height="182" width="160" viewBox="0 0 160 182" version="1.1" xmlns="http://www.w3.org/2000/svg" xmlns:xlink="http://www.w3.org/1999/xlink" xml:space="preserve" xmlns:serif="http://www.serif.com/" style="fill-rule:evenodd;clip-rule:evenodd;stroke-linecap:round;stroke-linejoin:round;stroke-miterlimit:1.5;">
    <g id="FrontWalking1" opacity="0.95">
        <g transform="matrix(0.362105,0,0,0.362105,-146.515,-181.906)">
            <path d="M542.173,844.83L543.15,705.205L688.709,632.426L734.246,655.253L735.467,792.673L586.728,868.712L542.173,844.83Z" style="fill:rgb(108,68,68);stroke:black;stroke-width:2.76px;"/>
        </g>
        <g transform="matrix(0.0485041,-0.0242521,0,0.0485041,33.2564,67.3238)">
            <path d="M702.177,596.153L1214.91,598.825L1214.91,640.62L700.395,640.62L702.177,596.153Z" style="fill-rule:nonzero;"/>
        </g>
        <g transform="matrix(0.0485041,-0.0242521,0,0.0485041,42.9535,47.0442)">
            <path d="M702.177,596.153L1214.91,598.825L1214.91,640.62L700.395,640.62L702.177,596.153Z" style="fill-rule:nonzero;"/>
        </g>
        <g transform="matrix(0.0485041,-0.0242521,0,0.0485041,18.0316,59.2639)">
            <path d="M702.177,596.153L1214.91,598.825L1214.91,640.62L700.395,640.62L702.177,596.153Z" style="fill-rule:nonzero;"/>
        </g>
        <g transform="matrix(0.0485041,-0.0242521,0,0.0485041,17.3194,109.484)">
            <path d="M702.177,596.153L1214.91,598.825L1214.91,640.62L700.395,640.62L702.177,596.153Z" style="fill:rgb(94,59,59);fill-rule:nonzero;"/>
        </g>
        <g transform="matrix(0.0485041,-0.0242521,0,0.0485041,42.2757,97.0058)">
            <path d="M702.177,596.153L1214.91,598.825L1214.91,640.62L700.395,640.62L702.177,596.153Z" style="fill:rgb(94,59,59);fill-rule:nonzero;"/>
        </g>
        <g transform="matrix(0.0286832,0.0141583,1.27379e-17,0.0485041,30.0587,33.0543)">
            <path d="M702.177,596.153L1214.91,598.825L1214.91,640.62L700.395,640.62L702.177,596.153Z" style="fill-rule:nonzero;"/>
        </g>
        <g transform="matrix(0.0286832,0.0141583,1.27379e-17,0.0485041,83.5274,7.58247)">
            <path d="M702.177,596.153L1214.91,598.825L1214.91,640.62L700.395,640.62L702.177,596.153Z" style="fill-rule:nonzero;"/>
        </g>
        <g transform="matrix(0.0286832,0.0141583,1.27379e-17,0.0485041,82.7805,57.5095)">
            <path d="M702.177,596.153L1214.91,598.825L1214.91,640.62L700.395,640.62L702.177,596.153Z" style="fill:rgb(94,59,59);fill-rule:nonzero;"/>
        </g>
        <g transform="matrix(0.0286832,0.0141583,1.27379e-17,0.0485041,29.2829,84.2583)">
            <path d="M702.177,596.153L1214.91,598.825L1214.91,640.62L700.395,640.62L702.177,596.153Z" style="fill-rule:nonzero;"/>
        </g>
        <g transform="matrix(0.0485041,-0.0242521,0,0.0485041,32.1813,63.2384)">
            <path d="M363.817,943.029C435.923,958.285 461.656,914.294 517.089,990.849L514.826,1075C407.313,926.229 246.241,1078.14 223.817,1116.71L180.462,1091.92L190.422,1049.08L262.446,977.551L363.817,943.029Z" style="fill-rule:nonzero;"/>
        </g>
        <g transform="matrix(0.0485041,-0.0242521,0,0.0485041,34.6128,66.6886)">
            <rect x="625.74" y="644.656" width="40.354" height="512.502" style="fill-rule:nonzero;"/>
        </g>
        <g transform="matrix(0.0485041,-0.0242521,0,0.0485041,18.595,83.0596)">
            <rect x="625.74" y="644.656" width="40.354" height="512.502" style="fill-rule:nonzero;"/>
        </g>
        <g transform="matrix(0.0485041,-0.0242521,0,0.0485041,18.7225,57.9038)">
            <rect x="625.74" y="644.656" width="40.354" height="512.502" style="fill-rule:nonzero;"/>
        </g>
        <g transform="matrix(0.0485041,-0.0242521,-1.33899e-32,0.0485041,71.5404,33.5732)">
            <rect x="625.74" y="644.656" width="40.354" height="512.502" style="fill:rgb(94,59,59);fill-rule:nonzero;"/>
        </g>
        <g transform="matrix(0.0485041,-0.0242521,0,0.0485041,71.5404,57.2592)">
            <rect x="625.74" y="644.656" width="40.354" height="512.502" style="fill:rgb(94,59,59);fill-rule:nonzero;"/>
        </g>
        <g transform="matrix(0.0485041,-0.0242521,0,0.0485041,32.841,67.7702)">
            <path d="M1216.93,597.043L1733.23,599.716L1731.45,640.62L1216.93,640.62L1216.93,597.043Z" style="fill-rule:nonzero;"/>
        </g>
        <g transform="matrix(0.0485041,-0.0242521,0,0.0485041,36.4796,64.0838)">
            <rect x="791.193" y="856.517" width="86.762" height="86.762" style="fill-rule:nonzero;"/>
        </g>
        <g transform="matrix(0.0485041,-0.0242521,0,0.0485041,33.8339,67.0705)">
            <path d="M1222.99,1088.56L1037.36,751.595L1075.69,729.4L1122.1,812.127L1323.87,812.127L1370.28,729.4L1408.62,751.595L1222.99,1088.56ZM1142.28,854.499L1222.99,997.757L1303.69,854.499L1142.28,854.499Z" style="fill-rule:nonzero;"/>
        </g>
        <g transform="matrix(0.0485041,-0.0242521,0,0.0485041,32.1936,66.7504)">
            <rect x="1566" y="856.517" width="86.762" height="86.762" style="fill-rule:nonzero;"/>
        </g>
        <g transform="matrix(0.0485041,-0.0242521,0,0.0485041,32.6114,67.6464)">
            <rect x="1779.88" y="644.656" width="40.354" height="512.502" style="fill-rule:nonzero;"/>
        </g>
        <g transform="matrix(0.0485041,-0.0242521,0,0.0485041,21.4301,64.0985)">
            <path d="M2012.23,1032.13C1987.7,1055.62 1961.37,1077.01 1933.22,1094.76L1898.95,1078.07L1884.8,1048.2C1933.62,1023.25 1976.32,992.164 2012.9,954.956" style="fill:rgb(94,59,59);fill-rule:nonzero;"/>
        </g>
        <g transform="matrix(0.0485041,-0.0242521,0,0.0485041,21.4301,64.0985)">
            <path d="M2012.9,954.956C2021.66,946.035 2030.08,936.762 2038.15,927.137C2081.19,876.021 2114.82,805.401 2139.03,715.276L2166.61,713.608L2193.51,739.489C2202.93,744.869 2203.65,757.099 2190.2,762.48C2161.95,840.498 2127.6,895.526 2092.62,941.261C2068.43,972.794 2041.63,1003.97 2012.23,1032.13" style="fill-rule:nonzero;"/>
        </g>
        <g transform="matrix(0.0485041,-0.0242521,0,0.0485041,36.668,65.1362)">
            <rect x="583.367" y="1161.19" width="40.354" height="512.502" style="fill-rule:nonzero;"/>
        </g>
        <g transform="matrix(0.0485041,-0.0242521,0,0.0485041,35.2992,66.5712)">
            <path d="M664.076,1651.5L1178.6,1651.5L1178.6,1695.08L664.076,1691.51L664.076,1651.5Z" style="fill-rule:nonzero;"/>
        </g>
        <g transform="matrix(0.0485041,-0.0242521,0,0.0485041,35.8891,65.9293)">
            <path d="M1180.61,1651.5L1695.13,1651.5L1691.57,1687.95L1185.96,1695.97L1180.61,1651.5Z" style="fill-rule:nonzero;"/>
        </g>
        <g transform="matrix(0.0485041,-0.0242521,0,0.0485041,34.5466,66.5712)">
            <rect x="1737.51" y="1161.19" width="40.354" height="512.502" style="fill-rule:nonzero;"/>
        </g>
        <g transform="matrix(0.0485041,-0.0242521,0,0.0485041,26.9132,61.7332)">
            <path d="M977.928,1839.54C972.513,2024.95 1155.5,2131.71 1227.04,2207.62C1226.3,2225.76 1251.74,2243.17 1222.6,2247.3C1154.06,2257.04 855.494,1912.37 921.438,1839.04" style="fill-rule:nonzero;"/>
        </g>
        <g transform="matrix(0.0485041,-0.0242521,0,0.0485041,26.9132,61.7332)">
            <path d="M921.438,1839.04L921.035,1685.75C922.733,1672.69 930.526,1648.89 957.508,1669.94C960.31,1672.12 977.426,1702.27 977.426,1702.27L977.928,1839.54" style="fill:rgb(94,59,59);fill-rule:nonzero;"/>
        </g>
        <g transform="matrix(0.0485041,-0.0242521,0,0.0485041,25.5156,62.5933)">
            <path d="M1382.65,1834.37L1381.55,1683.97C1379.07,1666.49 1395.22,1648.88 1420.91,1669.17C1423.95,1671.57 1436.16,1695.08 1436.16,1695.08L1437.12,1827.97" style="fill:rgb(94,59,59);fill-rule:nonzero;"/>
        </g>
        <g transform="matrix(0.0485041,-0.0242521,0,0.0485041,25.5156,62.5933)">
            <path d="M1437.12,1827.97L1439.72,2185.78C1438.26,2205.83 1416.23,2209.93 1399.14,2196.43C1396.34,2194.22 1385.11,2170.15 1385.11,2170.15L1382.65,1834.37" style="fill-rule:nonzero;"/>
        </g>
    </g>
</svg>
